!!!COM: Haydn, Franz Joseph
!!!OTL: String Quartet in C major
!!!OPS: Opus 1
!!!ONM: No. 6
!!!OMD: Menuetto II
!!!OMV: 4
!!!SCT: H III:6
!!!SCA: Thematisch-bibliographisches Werkevererzeichnis (A. van Hoboken)
!!!YOR: Bremner Edition, 1772
!!!ENC: Frances Bennion
!!!CDT: 1732/3/31/-1809/5/31/
!!!CNT: Oesterreich
!!!YEC: Copyright (c) 1994, 2000 Center for Computer Assisted Research in the Humanities
!!!YEM: Rights to all derivative editions reserved.
!!!YEM: Refer to licensing agreement for further details.
!!!YEN: United States of America
**kern	**kern	**kern	**kern
*k[]	*k[]	*k[]	*k[]
*C:	*C:	*C:	*C:
*clefF4	*clefC3	*clefF	*clefF
*M3/4	*M3/4	*M3/4	*M3/4
2C	4c	4c	4cc
.	2r	4e	4ee
4C	.	4f#	4ff#
=2	=2	=2	=2
4BB	4B	8f#	8ff#
.	.	8g	8gg
4B	4b	2d	2dd
4G	4b	.	.
=3	=3	=3	=3
4c	4cc	8f	8ff
.	.	8e	8ee
4F	4f	8a	8aa
.	.	8f	8ff
4F#	4f#	8d	8dd
.	.	8c	8cc
=4	=4	=4	=4
4G	4g	2c	2cc
4D	4d	.	.
4GG	4G	4B	4b
=5	=5	=5	=5
4E	4e	8c	8cc
.	.	8g	8gg
4r	4r	4g	4gg
4E	4e	4g#	4gg#
=6	=6	=6	=6
4F	4f	12a	12aa
.	.	12b	12bb
.	.	12cc	12ccc
4A	4a	4.cc	4.ccc
4F	4f	.	.
.	.	16b	16bb
.	.	16a	16aa
=7	=7	=7	=7
4E	4e	4g	4gg
4F	4f	4c	4cc
4G	4g	4B	4b
=8	=8	=8	=8
4C	4c	2c	2cc
4GG	4G	.	.
4CC	4C	4r	4r
=9	=9	=9	=9
4G	4g	4g	4gg
4E	4e	4g	4gg
4D	4d	4g	4gg
=10	=10	=10	=10
4C#	4c#	8g	8gg
.	.	8b-	8bb-
4r	4r	4.b-	4.bb-
4c#	4cc#	.	.
.	.	16a	16aa
.	.	16g	16gg
=11	=11	=11	=11
4d	4dd	4f	4ff
4G	4g	4e	4ee
4B-	4b-	4d	4dd
=12	=12	=12	=12
4A	4a	2d	2dd
4E	4e	.	.
4AA	4A	4c#	4cc#
=13	=13	=13	=13
4A	4a	4A	4a
4G	4g	4B-	4b-
4E	4e	4c#	4cc#
=14	=14	=14	=14
4.F	4.f	4c#	4cc#
.	.	8d	8dd
8C#	8c#	8e	8ee
8D	8d	8f	8ff
8E	8e	8g	8gg
=15	=15	=15	=15
4F	4f	4a	4aa
4G	4g	4d	4dd
4A	4a	4c#	4cc#
=16	=16	=16	=16
4D	4d	2d	2dd
4AA	4A	.	.
4DD	4D	4r	4r
=17	=17	=17	=17
4d	4dd	4f	4ff
4B	4b	4f	4ff
4G	4g	4f	4ff
=18	=18	=18	=18
4c	4cc	8f	8ff
.	.	8e	8ee
2r	2r	12cc	12ccc
.	.	12b	12bb
.	.	12a	12aa
.	.	4g	4gg
=19	=19	=19	=19
4d	4dd	8g	8gg
.	.	8f	8ff
4B	4b	4f	4ff
4G	4g	4f	4ff
=20	=20	=20	=20
4c	4cc	8f	8ff
.	.	8e	8ee
2r	2r	12cc	12ccc
.	.	12b	12bb
.	.	12a	12aa
.	.	4g	4gg
=21	=21	=21	=21
4E	4e	4g	4gg
4F	4f	8.f	8.ff
.	.	16e	16ee
4F#	4f#	8.d	8.dd
.	.	16c	16cc
=22	=22	=22	=22
4G	4g	4G	4g
8G	8g	2r	2r
8F	8f	.	.
8E	8e	.	.
8D	8d	.	.
=23	=23	=23	=23
4C	4c	4c	4cc
4r	4r	4e	4ee
4C	4c	4f#	4ff#
=24	=24	=24	=24
4BB	4B	8f#	8ff#
.	.	8g	8gg
4B	4b	2d	2dd
4G	4g	.	.
=25	=25	=25	=25
4c	4cc	8f	8ff
.	.	8e	8ee
4F	4f	8a	8aa
.	.	8f	8ff
4F#	4f#	8d	8dd
.	.	8c	8cc
=26	=26	=26	=26
4G	4g	2c	2cc
4D	4d	.	.
4GG	4G	4B	4b
=27	=27	=27	=27
4E	4e	4c	8cc
.	.	.	8gg
4r	4r	4g	4gg
4E	4e	4g#	4gg#
=28	=28	=28	=28
4F	4f	12a	12aa
.	.	12b	12bb
.	.	12cc	12ccc
4A	4a	4.cc	4.ccc
4F	4f	.	.
.	.	16b	16bb
.	.	16a	16aa
=29	=29	=29	=29
4E	4e	4g	4gg
4F	4f	4c	4cc
4G	4g	4B	4b
=30	=30	=30	=30
4C	4c	2c	2cc
4CC	4C	.	.
4r	4r	4r	4r
=31	=31	=31	=31
2.r	4r	4r	4g
.	4c	4e-	2r
.	4c	4e-	.
=32	=32	=32	=32
2.r	4r	4r	4g
.	4B	4d	2r
.	4B	4d	.
=33	=33	=33	=33
2.r	2c	2e-	8g
.	.	.	8b
.	.	.	8cc
.	.	.	8ee-
.	4A-	4f#	8dd
.	.	.	8cc
=34	=34	=34	=34
2.r	4G	4g	2b
.	4g	4G	.
.	4G	4r	4r
=35	=35	=35	=35
2.r	4r	4r	[2.ff
.	4a-	4cc	.
.	4a-	4cc	.
=36	=36	=36	=36
2.r	2g	2b	8ff]
.	.	.	8aa-
.	.	.	8gg
.	.	.	8ff
.	4r	4b	8ee-
.	.	.	8dd
=37	=37	=37	=37
2.r	4c	4cc	4ee-
.	4g	4e-	4cc
.	4G	4d	4b
=38	=38	=38	=38
2.r	4c	4c	4cc
.	4G	2r	2r
.	4C	.	.
=39	=39	=39	=39
4E-	4e-	4e-	4e-
8G	8g	8g	8g
8E-	8e-	8e-	8e-
8D	8d	8d	8d
8C	8c	8c	8c
=40	=40	=40	=40
4BB-	4B-	4B-	4B-
4EE-	4b-	4g	2r
4r	4b-	4g	.
=41	=41	=41	=41
4r	4b-	4g	2.r
4D	12cc	12a-	.
.	12b-	12g	.
.	12a-	12f	.
4E-	4g	4e-	.
=42	=42	=42	=42
4E-	4e-	4e-	4e-
8G	8g	8g	8g
8E-	8e-	8e-	8e-
8D	8d	8d	8d
8C	8c	8c	8c
=43	=43	=43	=43
4BB-	4B-	4B-	4B-
4EE-	2r	4b-	4gg
4r	.	4b-	4gg
=44	=44	=44	=44
4r	4r	8b-	8gg
.	.	8a-	8ff
4D	4d	8a-	8ff
.	.	8g	8ee-
4E-	4e-	4g	4ee-
=45	=45	=45	=45
4A-	4a-	12a-	12cc
.	.	12g	12b-
.	.	12f	12a-
4B-	4b-	4e-	4g
4BB-	4B-	4d	4f
=46	=46	=46	=46
4E-	4e-	2e-	2e-
4BB-	4B-	.	.
4EE-	4E-	4r	4r
=47	=47	=47	=47
2.r	4r	4r	2.b-
.	4d-	4f	.
.	4d-	4f	.
=48	=48	=48	=48
2.r	2c	2e	4b-
.	.	.	8dd-
.	.	.	8b-
.	4e	4e	8a-
.	.	.	8g
=49	=49	=49	=49
2.r	4f	4f	8g
.	.	.	8a-
.	4r	4r	8cc
.	.	.	8a-
.	4d	4d	8g
.	.	.	8f
=50	=50	=50	=50
2.r	4e-	4e-	8f#
.	.	.	8g
.	4r	4r	8b-
.	.	.	8g
.	4c	4c	8f
.	.	.	8e
=51	=51	=51	=51
2.r	4d	4d	8e
.	.	.	8f
.	4r	4r	8a-
.	.	.	8f
.	4B	4B	8e-
.	.	.	8d
=52	=52	=52	=52
4r	4c	4c	4e-
8.C	8.c	8.c	8.c
16D	16d	16d	16d
8.E-	8.e-	8.e-	8.e-
16F	16f	16f	16f
=53	=53	=53	=53
4G	4g	4g	4g
8.C	8.c	8.c	8.c
16D	16d	16d	16d
8.E-	8.e-	8.e-	8.e-
16F	16f	16f	16f
=54	=54	=54	=54
4G	4g	4g	4g
4GG	4G	4G	4G
4r	4r	4r	4r
=55	=55	=55	=55
2.r	4r	4r	4gg
.	4c	4e-	2r
.	4c	4e-	.
=56	=56	=56	=56
2.r	4r	4r	4gg
.	4B	4d	2r
.	4B	4d	.
=57	=57	=57	=57
2.r	2c	2e-	8gg
.	.	.	8ff#
.	.	.	8gg
.	.	.	8ee-
.	4A-	4f#	8dd
.	.	.	8cc
=58	=58	=58	=58
2.r	4G	4g	2b
.	4g	4G	.
.	4G	4r	4r
=59	=59	=59	=59
2.r	4r	4r	2.ff
.	4a-	4cc	.
.	4a-	4cc	.
=60	=60	=60	=60
2.r	2g	2b	8ff
.	.	.	8aa-
.	.	.	8gg
.	.	.	8ff
.	4g	4b	8ee-
.	.	.	8dd
=61	=61	=61	=61
2.r	4c	4cc	8ee-
.	.	.	8gg
.	4r	4r	8ff
.	.	.	8ee-
.	4f	8f	8dd
.	.	8e-	8cc
=62	=62	=62	=62
2.r	4g	2d	2b
.	4d	.	.
.	4G	4r	4r
=63	=63	=63	=63
4C	4c	4c	4c
8E-	8e-	8e-	8e-
8C	8c	8c	8c
8BB-	8B-	8B-	8B-
8AA-	8A-	8A-	8A-
=64	=64	=64	=64
4GG	4G	4G	4G
4CC	4g	4e-	2r
4r	4g	4e-	.
=65	=65	=65	=65
4r	4g	4e-	2.r
4BB	12a-	12f	.
.	12g	12e-	.
.	12f	12d	.
4C	4e-	4c	.
=66	=66	=66	=66
4C	4c	4c	4c
8E-	8e-	8e-	8e-
8C	8c	8c	8c
8BB-	8B-	8B-	8B-
8AA-	8A-	8A-	8A-
=67	=67	=67	=67
4GG	4G	4G	4G
4CC	2r	4g	4ee-
4r	.	4g	4ee-
=68	=68	=68	=68
4r	4r	8g	8ee-
.	.	8f	8dd
4B	4b	8f	8dd
.	.	8e-	8cc
4c	4cc	4e-	4cc
=69	=69	=69	=69
4F	4f	12f	12a-
.	.	12e-	12g
.	.	12d	12f
4G	4g	4c	4e-
4GG	4G	4B	4d
=70	=70	=70	=70
4C	4c	2c	2c
4GG	4G	.	.
4CC	4C	4r	4r
==	==	==	==
*-	*-	*-	*-
!!!RWG1: This file contains only pitch and duration data.
!!!RWG2: Transposing instruments are not transposed.
!!!RWG3: Spines may have incompatible meters.
!!!RWG4: Durations of rests and tied notes may be interpreted.
!!!RWG: Key is interpreted using the Humdrum key tool.
!!!GTL: 10 Divertimentos
!!!AFT: stage1
!!!END: 1997/04/15
!!!KEY: 1752436655
!!!EMD: Converted from MuseData to Humdrum Dec 16, 2000, by Andreas Kornstaedt using muse2kern.
!!!EMD: Manual editing by Craig Sapp, Nov 2001
